build/Karasa-Jaga/scalable/apps/preferences-desktop-locale-symbolic.svg

<svg height="16" width="16" xmlns="http://www.w3.org/2000/svg"><g fill="#bebebe" transform="matrix(.96091185 -.25294325 .25294325 .96091185 -1.31397 2.952359)"><path d="m.85345716 5.1380989-1.62784348 4.4217446 1.2104077.6400355c1.34687412.71277 2.90361392.894738 4.41929422 1.023186l1.6632221.07402c1.9996904-.06131 3.5717403.481391 4.5629763.979647 1.182098.648842 1.020945.709537 2.351152 1.550018l.531186.15239.90563-4.6848885c-2.022907-1.7218716-4.821923-2.1229071-7.1013507-2.4164625l-2.1160365-.1523895c-1.8421568-.3833356-3.4060627-1.0509331-4.2674515-1.3608935zm.46587564.4136345-.013062-.00436c.0043.0016.00866.00306.013062.00436.8574522.3085438 2.4387995.9792858 4.2935754 1.3652475.0086.00204.017332.00349.026124.00436l2.1029745.1523895h.013062c2.2407401.2887519 4.6684793.8991303 6.6244753 2.5075476l-.554808 2.942695-.184465.782796c-.625178-.396943-.545773-.29216-.815132-.49027-.276348-.203249-.443704-.47042-1.040346-.797912-.938663-.49655-1.9356176-.825196-2.9602356-1.027781-1.2224183-.241693-2.4842123-.303956-3.7333731-.257846-1.5085476-.128051-2.9506255-.287501-4.25170748-.9760384l-.90886308-.4492699z"/><path d="m2.3906838.92289513-1.59003595 4.34932097 1.11137425.3559793c.8613888.3099604 1.8979159.7138685 3.7400727 1.0972041l2.1160365.1523895c.737643.094997 1.5265413.2025122 2.3293827.3613807.0014.0001533.08239.051763.08379.051916 1.332264.1505808 2.496555.8490225 3.23998 1.222715.669277.3673597.497742.05424.612279.1665378.240925.152512.476257.318922.700992.500708.06113.0395.08936.07025.117558.09578l.01742.01742.855367-3.9286812c-1.1975-1.2169289-2.752365-1.800353-3.924979-2.0449816l-3.3310682-.458802c-1.7887225-.0894473-2.4165573-.3675146-3.2779461-.677475z"/></g></svg>

<?xml version="1.0" encoding="UTF-8" standalone="no"?>
<!-- Created with Inkscape (http://www.inkscape.org/) -->

<svg
   xmlns:dc="http://purl.org/dc/elements/1.1/"
   xmlns:cc="http://creativecommons.org/ns#"
   xmlns:rdf="http://www.w3.org/1999/02/22-rdf-syntax-ns#"
   xmlns:svg="http://www.w3.org/2000/svg"
   xmlns="http://www.w3.org/2000/svg"
   xmlns:xlink="http://www.w3.org/1999/xlink"
   xmlns:sodipodi="http://sodipodi.sourceforge.net/DTD/sodipodi-0.dtd"
   xmlns:inkscape="http://www.inkscape.org/namespaces/inkscape"
   id="svg7384"
   height="16"
   width="16"
   version="1.1"
   inkscape:version="0.92.2 (unknown)"
   sodipodi:docname="preferences-desktop-locale-symbolic.svg">
  <defs
     id="defs9">
    <linearGradient
       inkscape:collect="always"
       xlink:href="#linearGradient67794"
       id="linearGradient67792"
       x1="11.704979"
       y1="28.110699"
       x2="105.31091"
       y2="59.568325"
       gradientUnits="userSpaceOnUse"
       gradientTransform="translate(-36.626841,-53.694653)" />
    <linearGradient
       id="linearGradient67794">
      <stop
         id="stop67796"
         offset="0"
         style="stop-color:#c5c5c5;stop-opacity:1;" />
      <stop
         style="stop-color:#d4d4d4;stop-opacity:1;"
         offset="0.5"
         id="stop67798" />
      <stop
         id="stop67800"
         offset="0.67011434"
         style="stop-color:#f8f8f8;stop-opacity:1;" />
      <stop
         id="stop67802"
         offset="1"
         style="stop-color:#c5c5c5;stop-opacity:1;" />
    </linearGradient>
    <linearGradient
       inkscape:collect="always"
       xlink:href="#linearGradient67774"
       id="linearGradient67772"
       x1="20.286875"
       y1="13.375237"
       x2="115.87508"
       y2="39.837811"
       gradientUnits="userSpaceOnUse"
       gradientTransform="translate(4,0)" />
    <linearGradient
       id="linearGradient67774">
      <stop
         id="stop67776"
         offset="0"
         style="stop-color:#545454;stop-opacity:1;" />
      <stop
         style="stop-color:#1a1a1a;stop-opacity:1;"
         offset="0.125"
         id="stop67778" />
      <stop
         style="stop-color:#808080;stop-opacity:1"
         offset="0.65128642"
         id="stop67780" />
      <stop
         id="stop67784"
         offset="1"
         style="stop-color:#333333;stop-opacity:1;" />
    </linearGradient>
    <linearGradient
       y2="39.837811"
       x2="115.87508"
       y1="13.375237"
       x1="20.286875"
       gradientTransform="translate(-36.626841,-53.694653)"
       gradientUnits="userSpaceOnUse"
       id="linearGradient4806"
       xlink:href="#linearGradient67774"
       inkscape:collect="always" />
    <linearGradient
       inkscape:collect="always"
       xlink:href="#linearGradient67774"
       id="linearGradient4856"
       gradientUnits="userSpaceOnUse"
       gradientTransform="translate(-36.626841,-53.694653)"
       x1="20.286875"
       y1="13.375237"
       x2="115.87508"
       y2="39.837811" />
    <linearGradient
       inkscape:collect="always"
       xlink:href="#linearGradient67794"
       id="linearGradient4858"
       gradientUnits="userSpaceOnUse"
       gradientTransform="translate(-36.626841,-53.694653)"
       x1="11.704979"
       y1="28.110699"
       x2="105.31091"
       y2="59.568325" />
    <linearGradient
       inkscape:collect="always"
       xlink:href="#linearGradient67794"
       id="linearGradient4864"
       gradientUnits="userSpaceOnUse"
       gradientTransform="matrix(0.13078471,0,0,0.13078471,0.18620412,0.00221678)"
       x1="11.704979"
       y1="28.110699"
       x2="105.31091"
       y2="59.568325" />
  </defs>
  <sodipodi:namedview
     pagecolor="#ffffff"
     bordercolor="#666666"
     borderopacity="1"
     objecttolerance="10"
     gridtolerance="10"
     guidetolerance="10"
     inkscape:pageopacity="0"
     inkscape:pageshadow="2"
     inkscape:window-width="1366"
     inkscape:window-height="716"
     id="namedview7"
     showgrid="false"
     inkscape:zoom="11.313709"
     inkscape:cx="22.42591"
     inkscape:cy="2.8179323"
     inkscape:window-x="0"
     inkscape:window-y="27"
     inkscape:window-maximized="1"
     inkscape:current-layer="svg7384" />
  <metadata
     id="metadata90">
    <rdf:RDF>
      <cc:Work
         rdf:about="">
        <dc:format>image/svg+xml</dc:format>
        <dc:type
           rdf:resource="http://purl.org/dc/dcmitype/StillImage" />
        <dc:title>Gnome Symbolic Icon Theme</dc:title>
      </cc:Work>
    </rdf:RDF>
  </metadata>
  <title
     id="title9167">Gnome Symbolic Icon Theme</title>
  <g
     id="g4869"
     transform="matrix(0.96091185,-0.25294325,0.25294325,0.96091185,-1.3139704,2.9523586)">
    <path
       id="path67172"
       d="m 0.85345716,5.1380989 -1.62784348,4.4217446 1.2104077,0.6400355 c 1.34687412,0.71277 2.90361392,0.894738 4.41929422,1.023186 l 1.6632221,0.07402 c 1.9996904,-0.06131 3.5717403,0.481391 4.5629763,0.979647 1.182098,0.648842 1.020945,0.709537 2.351152,1.550018 l 0.531186,0.15239 0.90563,-4.6848885 C 12.846575,7.5723799 10.047559,7.1713444 7.7681313,6.877789 L 5.6520948,6.7253995 C 3.809938,6.3420639 2.2460321,5.6744664 1.3846433,5.364506 Z m 0.46587564,0.4136345 -0.013062,-0.00436 c 0.0043,0.0016 0.00866,0.00306 0.013062,0.00436 0.8574522,0.3085438 2.4387995,0.9792858 4.2935754,1.3652475 0.0086,0.00204 0.017332,0.00349 0.026124,0.00436 l 2.1029745,0.1523895 0.013062,0 C 9.9958088,7.3624823 12.423548,7.9728607 14.379544,9.581278 l -0.554808,2.942695 -0.184465,0.782796 C 13.015093,12.909826 13.094498,13.014609 12.825139,12.816499 12.548791,12.61325 12.381435,12.346079 11.784793,12.018587 10.84613,11.522037 9.8491754,11.193391 8.8245574,10.990806 7.6021391,10.749113 6.3403451,10.68685 5.0911843,10.73296 3.5826367,10.604909 2.1405588,10.445459 0.83947682,9.7569216 L -0.06938626,9.3076517 Z"
       style="fill:#bebebe;fill-opacity:1;stroke:none"
       inkscape:connector-curvature="0"
       sodipodi:nodetypes="cccccccccccccccccccccccscscccc" />
    <path
       sodipodi:nodetypes="ccccccccccccccccc"
       inkscape:connector-curvature="0"
       id="path67176"
       d="M 2.3906838,0.92289513 0.80064785,5.2722161 1.9120221,5.6281954 C 2.7734109,5.9381558 3.809938,6.3420639 5.6520948,6.7253995 L 7.7681313,6.877789 c 0.737643,0.094997 1.5265413,0.2025122 2.3293827,0.3613807 0.0014,1.533e-4 0.08239,0.051763 0.08379,0.051916 1.332264,0.1505808 2.496555,0.8490225 3.23998,1.222715 0.669277,0.3673597 0.497742,0.05424 0.612279,0.1665378 0.240925,0.152512 0.476257,0.318922 0.700992,0.500708 0.06113,0.0395 0.08936,0.07025 0.117558,0.09578 l 0.01742,0.01742 L 15.7249,5.3655653 C 14.5274,4.1486364 12.972535,3.5652123 11.799921,3.3205837 L 8.4688528,2.8617817 C 6.6801303,2.7723344 6.0522955,2.4942671 5.1909067,2.1843067 z"
       style="fill:#bebebe;fill-opacity:1;stroke:none" />
  </g>
</svg>
